Sources/FrostedUI/Resources/Icons.xcassets/pinTilted32.imageset/pin-tilted-32.svg

<svg width="32" height="32" viewBox="0 0 32 32" fill="none" xmlns="http://www.w3.org/2000/svg" data-fui-icon="true">
  <path
    d="M16.9365 3.69946C18.4009 2.23531 20.7748 2.23539 22.2393 3.69946L28.25 9.71021C29.7144 11.1746 29.7143 13.5485 28.25 15.0129L22.915 20.3489C22.6637 20.6003 22.4701 20.9038 22.3477 21.2375L20.3184 26.7717C19.3754 29.3434 16.0825 30.0696 14.1455 28.1331L9.51172 23.4983L4.91602 28.095C4.62314 28.3878 4.14739 28.3878 3.85449 28.095C3.56185 27.8022 3.56194 27.3273 3.85449 27.0344L8.45117 22.4377L3.81738 17.804C1.88088 15.867 2.6062 12.5741 5.17773 11.6311L10.7119 9.60278C11.0459 9.48034 11.35 9.2859 11.6016 9.03442L16.9365 3.69946ZM21.1787 4.76001C20.3001 3.88172 18.8757 3.88165 17.9971 4.76001L12.6621 10.095C12.2567 10.5003 11.7677 10.8126 11.2295 11.01L5.69434 13.0403C4.15159 13.6061 3.71622 15.5813 4.87793 16.7434L15.207 27.0725C16.3693 28.2338 18.3445 27.7979 18.9102 26.2551L20.9395 20.7209C21.1369 20.1826 21.4491 19.6929 21.8545 19.2874L27.1895 13.9524C28.0679 13.0737 28.0681 11.6494 27.1895 10.7708L21.1787 4.76001Z"
    fill="currentColor"
  />
</svg>

<svg xmlns="http://www.w3.org/2000/svg" width="32" height="32" fill="none" data-fui-icon="true" viewBox="0 0 32 32"><path fill="currentColor" d="M16.937 3.7a3.75 3.75 0 0 1 5.302 0l6.011 6.01a3.75 3.75 0 0 1 0 5.303l-5.335 5.336a2.45 2.45 0 0 0-.567.889l-2.03 5.534c-.943 2.571-4.236 3.298-6.173 1.361l-4.633-4.635-4.596 4.597a.751.751 0 0 1-1.062-1.06l4.597-4.597-4.634-4.634c-1.936-1.937-1.21-5.23 1.36-6.173l5.535-2.028c.334-.123.638-.317.89-.569zm4.242 1.06a2.25 2.25 0 0 0-3.182 0l-5.335 5.335a3.95 3.95 0 0 1-1.433.915l-5.535 2.03c-1.542.566-1.978 2.541-.816 3.703l10.329 10.33c1.162 1.16 3.137.725 3.703-.818l2.03-5.534c.197-.538.51-1.028.915-1.434l5.334-5.335a2.25 2.25 0 0 0 0-3.181z"/></svg>
